X:1
T:Si aulcunement
T:Si aulcunement
T:Thomas Crecquillon
C:Thomas Crecquillon
%%score [ 1 2 3 4 ]
L:1/8
Q:1/4=80
M:2/2
K:C
V:1 treble nm="Superius" snm="S"
V:2 treble nm="Altus" snm="A"
V:3 treble-8 nm="Tenor" snm="T"
V:4 bass nm="Bass" snm="B"
V:1
 B8 | c4 A2 A2 | G8 | z2 e2 e2 e2 | d2 d2 c4 | B4 z2 B2 | B2 B2 c2 A2 | G2 G2 FG A2- | %8
w: Si|aul- cu- ne-|ment|de- si- res|re- com- pen-|se, qu'a-|vez souf- fert pei-|n'et _ _ _ _|
 A2 G2 F2 G2- |"^#" G2 F2 G4- | G4 B4- | B4 c4 | A4 G4- | G4 z2 e2 | e2 e2 d2 d2 | c4 B4 | %16
w: _ _ _ _|* tra- vaulx,|_ en|_ tout|hon- neur,|_ de|tout je m'en con-|ten- te|
 z2 B2 B2 B2 | c2 A2 G2 G2 | FG A4 G2 | F2 G4 F2 | G4 z2 c2 | c2 B2 c2 f2 | e3 d c2 B2 | %23
w: d'a- voir pi-|tié de tes as-|||saulx, con-|si- de- rant, con|si- * * de-|
 A2 A2 G2 c2 | c2 d2 f3 f | f2 f2 e4 | z2 e2 c2 d2 | e2 c2 d2 B2 | A2 d3 c c2- | c2 B2 c4 | %30
w: rant que tant de|maulx, _ _ que|tant de maulx|a- vez souf-|fert pour ma sem-|blan- * * *|* * ce,|
 z2 c2 c2 A2 | B4 z2 A2 |: A2 A2 B2 c2 | c2 A2 c2 B2- | BA A4 G2 | A4 z2 A2- | A2 d4 B2 | %37
w: con- for- te|toy, con|for- te toy re-|pre- nant es- pe-|* * ran- *|ce, de|_ tes maulx|
 G2 c3 BAG | FE D2 E2 G2- |"^#" G2 F2 G4 | z2 A2 A2 A2 |1 B4 z2 A2 :|2"^#" G2 F2 G4- || G8 |] %44
w: au- ras _ _ _|_ _ _ al- le-|* gean- ce,|con- for- te|toy, con|* gean- ce.|_|
V:2
 G8 | G4 F4 | E2 DC D4 | E2 c2 c2 c2 | A2 B2 A2 G2- | GFDE F2 G2 | z2 G2 G2 F2 | D2 C2 DB,CD | %8
w: Si|aul- cu-|ne- * * *|ment de- si- res|re- com- pen- *|* * * * * se|qu'a- vez souf-|fert pei n'et _ _ _|
 E4 D2 C2 | D4 D4- | D4 G4- | G4 G4 | F4 E2 DC | D4 E2 c2 | c2 c2 A2 B2 | A2 G3 FDE | F2 G2 z2 G2 | %17
w: _ _ _|tra- vaulx,|_ en|tout hon-|neur, _ _ _|_ _ de|tout je m'en con-|sen- * * * *|* te d'a-|
 G2 F2 D2 C2 | DB,CD E4 | D2 C2 D2 D2- | D2 B,2 G,2 C2 | z2 G2 G2 F2 | G2 E2 F2 D2 | C4 z2 G2 | %24
w: voir pi- tié de|tes _ _ _ _|_ _ as- saulx|_ _ _ _|con- si- de-|rant, con- si- de-|rant que|
 F2 D3 C C2- | C2 B,2 CDEF | G2 G2 A2 F2 | G2 A2 F2 G2 | C2 A3 GEF | G4 E4 | z2 E2 E2 F2 | %31
w: tant _ _ de|_ _ mailx _ _ _|_ a- vez souf-|fert pour ma sem-|bla- * * * *|* ce,|con- for- te|
 G2 G2 G2 E2 |: F2 F2 D2 E2 | F2 F2 E2 G2 | FECD E4 | C2 F2 E4 | D2 D4 G2- | G2 E2 C2 F2- | %38
w: toy, con- for- te|toy re- pre- nant|es- pe- ran- *|||ce, de tes|_ maulx au- ras|
 F2 GF ED C2 | D4 B,2 G2 | G2 E2 F4 |1 z2 G2 G2 E2 :|2 D4 D4- || D8 |] %44
w: _ al- * * * le-|gean- ce, con-|for- te toy,|con- for- te|gean- ce.|_|
V:3
 d8 | e4 d2 c2- | c2 BA B4 | c2 g2 g2 g2 | f2 d2 e4 | d2 d2 d2 d2 | e2 d2 c2 c2 | B2 G2 A4 | %8
w: Si|aul- cu- ne-||ment de- si- res|re- com- pen-|ce, qu'a- vez souf-|fert pei- n'et _|_ _ _|
 c3 B A2 G2 | A4 B4- | B4 d4- | d4 e4 | d2 c4 BA | B4 c2 g2 | g2 g2 f2 d2 | e4 d2 d2 | %16
w: |tra- vaulx,|_ en|_ tout|hon- neur, _ _|_ _ de|tout je m'en con-|sen- te d'a-|
 d2 d2 e2 d2 | c4 B2 G2 | A4 c3 B | A2 G2 A4 | G2 d2 e2 f2 | d2 d2 c2 A2 | c3 B A2 G2 | %23
w: voir pi- tié de|tes as- *|||saulx, con- si- de-|rant que tant _|de _ _ maulx,|
 z2 f2 e3 d | c2 B2 A2 G2- | G2 F2 G4 | z2 e2 f2 d2 | c2 e2 d3 e | f4 e2 c2 | d4 c4 | z2 c2 A2 d2 | %31
w: con si- de-|rant que tant _|_ de maulx|a- vez souf-|fert pour ma sem-|blan- * *|* ce,|con- for- te|
 G4 z2 c2 |: A2 d2 G2 G2 | A2 c4 d2- | dc A2 B4 |"^#" A2 d4 c2 | d2 A2 B4 | B2 c2 A2 A2 | %38
w: toy, con-|for- te toy re-|pre- nant es-|* * * pe-|ran- * *|ce, de tes|maulx au- ras al-|
 d2 B2 cB AG | A4 G4 | z2 c2 A2 d2 |1 G4 z2 c2 :|2 A4 G4- || G8 |] %44
w: le gean- * * * *|* ce,|con- for- te|toy, con-|(gean)- ce.|_|
V:4
 G,8 | C,4 F,2 F,2 | G,8 | z2 C,2 C2 C2 | D2 G,2 C4 | G,4 z2 G,2 | G,2 G,2 C,2 F,2 | %7
w: Si|aul- cu- ne-|ment|de- si- res|re- com- pen-|se, vez|souf- fert pei- n'et|
 G,2 E,2 D,2 F,2 | C,4 D,2 E,2 | D,4 G,4- | G,4 G,4- | G,4 C,4 | F,4 G,4- | G,4 z2 C,2 | %14
w: _ _ _ _||tra- vaulx,|_ en|_ tout|hon- neur,|_ de|
 C2 C2 D2 G,2 | C4 G,4 | z2 G,2 G,2 G,2 | C,2 F,2 G,2 E,2 | D,2 F,2 C,4 | D,2 E,2 D,4 | %20
w: tout je m'en con-|sen- te|d'a- voir pi-|tié de tes as-||* * saulx,|
 z2 G,2 G,2 F,2 | G,4 z2 D,2 | E,2 C,2 F,2 G,2 | A,2 F,2 C3 B, | A,2 G,2 F,2 E,2 | D,2 D,2 C,4- | %26
w: con- si- de-|rant, con-|si- de- rant que|tant de maulx, _|_ que tant _|_ de maulx|
 C,4 z4 | z2 A,2 B,2 G,2 | F,2 D,2 A,2 A,2 | G,4 C,4- | C,4 z4 | z2 G,2 E,2 A,2 |: D,4 z2 C,2 | %33
w: _|a- vez souf-|fert pour ma sem-|blan- ce,|_|con- for- te|toy re-|
 F,3 G, A,2 G,2 | D,2 F,2 E,4 | F,2 D,2 A,4 | D,2 D,2 G,4 | E,2 C,2 F,2 F,2 | D,2 G,2 C,2 E,2 | %39
w: pre- nant es- pe-|ran- * *||ce, de tes|maulx au- ras al-|le gean- * *|
 D,4 z2 G,2 | E,2 A,2 D,4 |1 z2 G,2 E,2 A,2 :|2 D,4 G,4- || G,8 |] %44
w: ce, con-|for- te toy,|con- for- te|(gean)- ce.|_|

